build-configs/integreat/assets/intro-slides/Offers.svg

<?xml version="1.0" encoding="UTF-8"?>
<svg xmlns="http://www.w3.org/2000/svg" xmlns:xlink="http://www.w3.org/1999/xlink" width="800px" height="800px"
     viewBox="0 0 800 800" version="1.1">
    <g id="surface1">
        <path style=" stroke:none;fill-rule:nonzero;fill:rgb(100%,86.27451%,0.392157%);fill-opacity:1;"
              d="M 539.425781 635.289062 L 275.378906 635.289062 C 227.632812 635.289062 188.539062 596.242188 188.539062 548.445312 L 188.539062 284.449219 C 188.539062 236.703125 227.585938 197.605469 275.378906 197.605469 L 539.378906 197.605469 C 587.125 197.605469 626.222656 236.65625 626.222656 284.449219 L 626.222656 548.445312 C 626.222656 596.195312 587.171875 635.289062 539.425781 635.289062 Z M 539.425781 635.289062 "/>
        <path style=" stroke:none;fill-rule:nonzero;fill:rgb(100%,100%,100%);fill-opacity:1;"
              d="M 365.832031 696.132812 L 196.496094 696.132812 C 160.636719 696.132812 131.257812 666.796875 131.257812 630.894531 L 131.257812 461.558594 C 131.257812 425.703125 160.59375 396.320312 196.496094 396.320312 L 365.832031 396.320312 C 401.6875 396.320312 431.066406 425.65625 431.066406 461.558594 L 431.066406 630.894531 C 431.023438 666.75 401.6875 696.132812 365.832031 696.132812 Z M 365.832031 696.132812 "/>
        <path style=" stroke:none;fill-rule:nonzero;fill:rgb(100%,86.27451%,0.392157%);fill-opacity:1;"
              d="M 700.480469 655.878906 C 700.480469 681.074219 680.054688 701.496094 654.859375 701.496094 C 629.667969 701.496094 609.242188 681.074219 609.242188 655.878906 C 609.242188 630.683594 629.667969 610.257812 654.859375 610.257812 C 680.054688 610.257812 700.480469 630.683594 700.480469 655.878906 Z M 700.480469 655.878906 "/>
        <path style=" stroke:none;fill-rule:nonzero;fill:rgb(100%,86.27451%,0.392157%);fill-opacity:1;"
              d="M 739.34375 728.007812 C 739.34375 740.605469 729.132812 750.816406 716.535156 750.816406 C 703.9375 750.816406 693.726562 740.605469 693.726562 728.007812 C 693.726562 715.410156 703.9375 705.199219 716.535156 705.199219 C 729.132812 705.199219 739.34375 715.410156 739.34375 728.007812 Z M 739.34375 728.007812 "/>
        <path style=" stroke:none;fill-rule:nonzero;fill:rgb(100%,86.27451%,0.392157%);fill-opacity:1;"
              d="M 713.203125 186.5 C 713.203125 211.695312 692.777344 232.121094 667.585938 232.121094 C 642.390625 232.121094 621.964844 211.695312 621.964844 186.5 C 621.964844 161.308594 642.390625 140.882812 667.585938 140.882812 C 692.777344 140.882812 713.203125 161.308594 713.203125 186.5 Z M 713.203125 186.5 "/>
        <path style=" stroke:none;fill-rule:nonzero;fill:rgb(100%,86.27451%,0.392157%);fill-opacity:1;"
              d="M 585.414062 161.933594 C 585.414062 174.53125 575.203125 184.742188 562.605469 184.742188 C 550.007812 184.742188 539.796875 174.53125 539.796875 161.933594 C 539.796875 149.335938 550.007812 139.125 562.605469 139.125 C 575.203125 139.125 585.414062 149.335938 585.414062 161.933594 Z M 585.414062 161.933594 "/>
        <path style=" stroke:none;fill-rule:nonzero;fill:rgb(100%,86.27451%,0.392157%);fill-opacity:1;"
              d="M 715.933594 99.425781 C 715.933594 84.632812 703.941406 72.640625 689.144531 72.640625 C 674.351562 72.640625 662.355469 84.632812 662.355469 99.425781 C 662.355469 114.222656 674.351562 126.214844 689.144531 126.214844 C 703.941406 126.214844 715.933594 114.222656 715.933594 99.425781 Z M 715.933594 99.425781 "/>
        <path style=" stroke:none;fill-rule:nonzero;fill:rgb(100%,86.27451%,0.392157%);fill-opacity:1;"
              d="M 633.4375 126.355469 C 633.4375 132.667969 628.324219 137.78125 622.011719 137.78125 C 615.699219 137.78125 610.582031 132.667969 610.582031 126.355469 C 610.582031 120.042969 615.699219 114.925781 622.011719 114.925781 C 628.324219 114.925781 633.4375 120.042969 633.4375 126.355469 Z M 633.4375 126.355469 "/>
        <path style="fill-rule:nonzero;fill:rgb(0%,0%,0%);fill-opacity:1;stroke-width:1;stroke-linecap:butt;stroke-linejoin:miter;stroke:rgb(0%,0%,0%);stroke-opacity:1;stroke-miterlimit:10;"
              d="M 81.130081 109.91014 L 68.730036 97.510095 C 68.52994 97.309999 68.230218 97.309999 67.929652 97.510095 L 62.33034 103.110252 C 60.130128 103.009782 58.330108 103.209878 56.82981 103.409974 C 55.330356 103.110252 53.629961 103.009782 51.330123 103.110252 L 45.729967 97.510095 C 45.529871 97.309999 45.230149 97.309999 44.929583 97.510095 L 32.729634 109.91014 C 32.530382 110.110236 32.530382 110.409958 32.729634 110.70968 L 38.32979 116.309836 C 37.730347 119.810251 38.129694 122.609907 40.030185 125.609659 L 37.130058 128.509785 C 36.52977 129.110073 36.129578 130.010083 36.129578 130.910093 C 36.129578 131.810104 36.52977 132.710114 37.130058 133.310402 C 37.730347 133.909846 38.630357 134.310038 39.429897 134.310038 L 38.729983 135.009952 C 38.129694 135.61024 37.730347 136.51025 37.730347 137.41026 C 37.730347 138.31027 38.129694 139.21028 38.729983 139.809724 C 39.330271 140.410012 40.230281 140.810204 41.130291 140.810204 C 42.030301 140.810204 42.930311 140.410012 43.529755 139.809724 L 44.229669 139.10981 C 44.229669 140.00982 44.629861 140.810204 45.230149 141.409648 C 45.829593 142.009936 46.830073 142.410128 47.629613 142.410128 C 48.529623 142.410128 49.429633 142.110406 50.029921 141.409648 L 52.630326 138.810088 L 54.430346 140.610108 C 55.02979 141.210396 55.9298 141.609744 56.82981 141.609744 C 57.72982 141.609744 58.62983 141.210396 59.230118 140.610108 C 59.830406 140.00982 60.229754 139.10981 60.229754 138.31027 L 63.429602 141.510118 C 64.02989 142.110406 65.03037 142.509754 65.82991 142.509754 C 66.72992 142.509754 67.62993 142.210032 68.230218 141.510118 C 68.829662 140.90983 69.229854 140.00982 69.229854 139.21028 L 69.929768 139.910194 C 70.530057 140.509638 71.529692 140.90983 72.330077 140.90983 C 73.230087 140.90983 74.130097 140.610108 74.730385 139.910194 C 76.130213 138.510366 76.130213 136.40978 74.730385 135.009952 L 74.029627 134.310038 C 74.929637 134.310038 75.730021 133.909846 76.330309 133.310402 C 76.929753 132.710114 77.329945 131.810104 77.329945 130.910093 C 77.329945 130.010083 76.929753 129.110073 76.330309 128.509785 L 73.230087 125.410407 C 75.030107 122.409811 75.630395 119.309589 75.129733 116.309836 L 80.729889 110.70968 C 81.330177 110.509584 81.330177 110.209862 81.130081 109.91014 Z M 41.130291 132.609643 C 40.730099 133.009835 40.129811 133.310402 39.429897 133.310402 C 38.729983 133.310402 38.230165 133.009835 37.730347 132.609643 C 37.229684 132.210296 37.029588 131.610007 37.029588 130.910093 C 37.029588 130.210179 37.330155 129.710361 37.730347 129.209699 L 40.530003 126.410043 C 41.229917 127.409679 42.129927 128.309689 43.130407 129.409795 L 43.630225 129.909613 Z M 42.829841 139.21028 C 42.429649 139.609628 41.830205 139.910194 41.130291 139.910194 C 40.430377 139.910194 39.929715 139.609628 39.429897 139.21028 C 39.029704 138.810088 38.729983 138.2098 38.729983 137.509886 C 38.729983 136.809972 39.029704 136.310154 39.429897 135.810336 L 44.530235 130.709997 L 47.930179 134.109942 Z M 49.429633 140.90983 C 48.529623 141.80984 47.030169 141.80984 46.029689 140.90983 C 45.129679 140.00982 45.129679 138.510366 46.029689 137.509886 L 48.630093 134.910326 L 52.030037 138.31027 Z M 76.630031 130.910093 C 76.630031 131.510382 76.330309 132.109825 75.930117 132.609643 C 75.030107 133.509653 73.529809 133.509653 72.530173 132.609643 L 65.93038 126.009851 L 61.829678 121.909993 C 61.629582 121.709897 61.32986 121.709897 61.030138 121.909993 C 60.830042 122.110089 60.830042 122.409811 61.030138 122.710377 L 74.229723 135.909962 C 75.129733 136.809972 75.129733 138.31027 74.229723 139.309906 C 73.329713 140.209916 71.830259 140.209916 70.829778 139.309906 L 68.630411 136.809972 L 58.229638 126.110321 C 58.030386 125.910225 57.72982 125.910225 57.430098 126.110321 C 57.230002 126.310417 57.230002 126.610139 57.430098 126.909861 L 67.7304 137.509886 C 68.630411 138.409896 68.630411 139.910194 67.7304 140.90983 C 66.83039 141.80984 65.330092 141.80984 64.329612 140.90983 L 59.52984 135.909962 L 53.429865 129.809987 C 53.229769 129.609891 52.930047 129.609891 52.630326 129.809987 C 52.329759 130.010083 52.430229 130.309805 52.630326 130.610372 L 58.7303 136.710346 C 59.63031 137.610356 59.63031 139.10981 58.7303 140.11029 C 58.330108 140.509638 57.72982 140.810204 57.029906 140.810204 C 56.429618 140.810204 55.830174 140.509638 55.330356 140.11029 L 43.929947 128.709881 C 39.629993 124.409927 38.430261 121.009983 39.330271 116.210211 L 39.330271 116.10974 C 39.330271 116.010115 39.330271 116.010115 39.330271 116.010115 C 39.330271 115.909644 39.330271 115.909644 39.330271 115.909644 C 39.330271 115.810019 39.330271 115.810019 39.229801 115.810019 C 39.229801 115.710393 39.130175 115.710393 39.130175 115.710393 C 39.130175 115.710393 39.130175 115.609922 39.029704 115.609922 L 33.629644 110.209862 L 45.329775 98.610202 L 50.729835 104.010262 C 50.830305 104.109888 50.929931 104.210358 51.030401 104.210358 L 51.130027 104.210358 C 52.230133 104.109888 53.229769 104.210358 54.129779 104.210358 C 52.030037 105.110368 50.529739 106.510196 48.529623 108.609938 L 42.330023 114.910008 C 41.729735 115.510297 41.330387 116.410307 41.330387 117.310317 C 41.330387 118.210327 41.729735 119.110337 42.330023 119.709781 C 42.930311 120.310069 43.929947 120.710261 44.730331 120.710261 C 45.529871 120.710261 46.530351 120.409695 47.129795 119.709781 L 51.530219 115.310201 C 52.129663 115.409826 52.729951 115.510297 53.429865 115.510297 C 55.630078 115.510297 57.83029 114.709912 60.130128 113.310084 L 75.930117 129.110073 C 76.429935 129.710361 76.630031 130.309805 76.630031 130.910093 Z M 72.829895 124.610023 L 61.030138 112.810266 C 61.230234 112.61017 61.43033 112.5097 61.629582 112.410074 C 61.829678 112.209978 61.930148 111.910256 61.730052 111.60969 C 61.529956 111.409594 61.230234 111.309968 60.929668 111.510064 C 57.630194 114.009998 54.430346 115.009634 51.429749 114.30972 L 51.530219 114.30972 C 51.429749 114.30972 51.429749 114.30972 51.429749 114.30972 C 51.330123 114.30972 51.330123 114.30972 51.330123 114.30972 C 51.229653 114.30972 51.229653 114.30972 51.229653 114.41019 C 51.130027 114.41019 51.130027 114.509816 51.130027 114.509816 C 51.130027 114.509816 51.030401 114.509816 51.030401 114.610287 L 46.429881 119.209963 C 45.529871 120.109973 44.030417 120.109973 43.029937 119.209963 C 42.629745 118.809771 42.330023 118.210327 42.330023 117.510413 C 42.330023 116.809654 42.629745 116.309836 43.029937 115.810019 L 49.330007 109.509948 C 53.33024 105.509716 55.13026 104.109888 62.529592 104.309984 L 62.630062 104.309984 C 62.729688 104.309984 62.830158 104.210358 62.929784 104.109888 L 68.329844 98.709827 L 79.930349 110.310332 L 74.530289 115.710393 C 74.530289 115.710393 74.530289 115.810019 74.429819 115.810019 C 74.429819 115.909644 74.330193 115.909644 74.330193 115.909644 C 74.330193 116.010115 74.229723 116.010115 74.229723 116.010115 C 74.229723 116.10974 74.229723 116.10974 74.229723 116.10974 C 74.229723 116.210211 74.229723 116.210211 74.229723 116.210211 L 74.229723 116.309836 C 75.030107 119.009867 74.429819 121.810367 72.829895 124.610023 Z M 72.829895 124.610023 "
              transform="matrix(4.626684,0,0,4.626684,0,0)"/>
    </g>
</svg>

<?xml version="1.0" encoding="utf-8"?>
<!-- Generator: Adobe Illustrator 23.0.2, SVG Export Plug-In . SVG Version: 6.00 Build 0)  -->
<svg version="1.1" id="Ebene_1" xmlns="http://www.w3.org/2000/svg" xmlns:xlink="http://www.w3.org/1999/xlink" x="0px" y="0px"
	 viewBox="0 0 172.91 172.91" style="enable-background:new 0 0 172.91 172.91;" xml:space="preserve">
<style type="text/css">
	.st0{fill:#FFDC01;}
	.st1{fill:#FFFFFF;}
	.st2{stroke:#000000;stroke-miterlimit:10;}
</style>
<path class="st0" d="M116.59,137.31H59.52c-10.32,0-18.77-8.44-18.77-18.77V61.48c0-10.32,8.44-18.77,18.77-18.77h57.06
	c10.32,0,18.77,8.44,18.77,18.77v57.06C135.35,128.86,126.91,137.31,116.59,137.31z"/>
<path class="st1" d="M79.07,150.46h-36.6c-7.75,0-14.1-6.34-14.1-14.1v-36.6c0-7.75,6.34-14.1,14.1-14.1h36.6
	c7.75,0,14.1,6.34,14.1,14.1v36.6C93.16,144.11,86.82,150.46,79.07,150.46z"/>
<circle class="st0" cx="141.54" cy="141.76" r="9.86"/>
<circle class="st0" cx="154.87" cy="157.35" r="4.93"/>
<circle class="st0" cx="144.29" cy="40.31" r="9.86"/>
<circle class="st0" cx="121.6" cy="35" r="4.93"/>
<ellipse class="st0" cx="148.95" cy="21.49" rx="5.79" ry="5.79"/>
<circle class="st0" cx="134.44" cy="27.31" r="2.47"/>
<path class="st2" d="M81.13,109.91l-12.4-12.4c-0.2-0.2-0.5-0.2-0.8,0l-5.6,5.6c-2.2-0.1-4,0.1-5.5,0.3c-1.5-0.3-3.2-0.4-5.5-0.3
	l-5.6-5.6c-0.2-0.2-0.5-0.2-0.8,0l-12.2,12.4c-0.2,0.2-0.2,0.5,0,0.8l5.6,5.6c-0.6,3.5-0.2,6.3,1.7,9.3l-2.9,2.9
	c-0.6,0.6-1,1.5-1,2.4c0,0.9,0.4,1.8,1,2.4c0.6,0.6,1.5,1,2.3,1l-0.7,0.7c-0.6,0.6-1,1.5-1,2.4c0,0.9,0.4,1.8,1,2.4
	c0.6,0.6,1.5,1,2.4,1s1.8-0.4,2.4-1l0.7-0.7c0,0.9,0.4,1.7,1,2.3c0.6,0.6,1.6,1,2.4,1c0.9,0,1.8-0.3,2.4-1l2.6-2.6l1.8,1.8
	c0.6,0.6,1.5,1,2.4,1c0.9,0,1.8-0.4,2.4-1c0.6-0.6,1-1.5,1-2.3l3.2,3.2c0.6,0.6,1.6,1,2.4,1c0.9,0,1.8-0.3,2.4-1
	c0.6-0.6,1-1.5,1-2.3l0.7,0.7c0.6,0.6,1.6,1,2.4,1c0.9,0,1.8-0.3,2.4-1c1.4-1.4,1.4-3.5,0-4.9l-0.7-0.7c0.9,0,1.7-0.4,2.3-1
	c0.6-0.6,1-1.5,1-2.4c0-0.9-0.4-1.8-1-2.4l-3.1-3.1c1.8-3,2.4-6.1,1.9-9.1l5.6-5.6C81.33,110.51,81.33,110.21,81.13,109.91z
	 M41.13,132.61c-0.4,0.4-1,0.7-1.7,0.7c-0.7,0-1.2-0.3-1.7-0.7c-0.5-0.4-0.7-1-0.7-1.7c0-0.7,0.3-1.2,0.7-1.7l2.8-2.8
	c0.7,1,1.6,1.9,2.6,3l0.5,0.5L41.13,132.61L41.13,132.61z M42.83,139.21c-0.4,0.4-1,0.7-1.7,0.7s-1.2-0.3-1.7-0.7
	c-0.4-0.4-0.7-1-0.7-1.7c0-0.7,0.3-1.2,0.7-1.7l5.1-5.1l1.8,1.8l0,0l1.6,1.6l-2.6,2.6l0,0l0,0L42.83,139.21z M49.43,140.91
	c-0.9,0.9-2.4,0.9-3.4,0c-0.9-0.9-0.9-2.4,0-3.4l2.6-2.6l3.4,3.4L49.43,140.91z M76.63,130.91c0,0.6-0.3,1.2-0.7,1.7
	c-0.9,0.9-2.4,0.9-3.4,0l-6.6-6.6l-4.1-4.1c-0.2-0.2-0.5-0.2-0.8,0c-0.2,0.2-0.2,0.5,0,0.8l4.1,4.1l6.6,6.6l2.5,2.5
	c0.9,0.9,0.9,2.4,0,3.4c-0.9,0.9-2.4,0.9-3.4,0l-2.2-2.5l0,0l-10.4-10.7c-0.2-0.2-0.5-0.2-0.8,0c-0.2,0.2-0.2,0.5,0,0.8l10.3,10.6
	l0,0l0,0c0.9,0.9,0.9,2.4,0,3.4c-0.9,0.9-2.4,0.9-3.4,0l-4.8-5l0,0l0,0l-6.1-6.1c-0.2-0.2-0.5-0.2-0.8,0s-0.2,0.5,0,0.8l6.1,6.1
	c0.9,0.9,0.9,2.4,0,3.4c-0.4,0.4-1,0.7-1.7,0.7c-0.6,0-1.2-0.3-1.7-0.7l-2.2-2.2l0,0l0,0l-6.9-6.9l0,0l-1.4-1.4l0,0l0,0l-0.9-0.9
	c-4.3-4.3-5.5-7.7-4.6-12.5v-0.1c0-0.1,0-0.1,0-0.1c0-0.1,0-0.1,0-0.1c0-0.1,0-0.1-0.1-0.1c0-0.1-0.1-0.1-0.1-0.1s0-0.1-0.1-0.1
	l-5.4-5.4l11.7-11.6l5.4,5.4l0,0c0.1,0.1,0.2,0.2,0.3,0.2h0.1l0,0l0,0c1.1-0.1,2.1,0,3,0c-2.1,0.9-3.6,2.3-5.6,4.4l-6.2,6.3
	c-0.6,0.6-1,1.5-1,2.4c0,0.9,0.4,1.8,1,2.4c0.6,0.6,1.6,1,2.4,1c0.8,0,1.8-0.3,2.4-1l4.4-4.4c0.6,0.1,1.2,0.2,1.9,0.2
	c2.2,0,4.4-0.8,6.7-2.2l15.8,15.8C76.43,129.71,76.63,130.31,76.63,130.91z M72.83,124.61l-11.8-11.8c0.2-0.2,0.4-0.3,0.6-0.4
	c0.2-0.2,0.3-0.5,0.1-0.8c-0.2-0.2-0.5-0.3-0.8-0.1c-3.3,2.5-6.5,3.5-9.5,2.8h0.1c-0.1,0-0.1,0-0.1,0c-0.1,0-0.1,0-0.1,0
	c-0.1,0-0.1,0-0.1,0.1c-0.1,0-0.1,0.1-0.1,0.1s-0.1,0-0.1,0.1l-4.6,4.6c-0.9,0.9-2.4,0.9-3.4,0c-0.4-0.4-0.7-1-0.7-1.7
	c0-0.7,0.3-1.2,0.7-1.7l6.3-6.3c4-4,5.8-5.4,13.2-5.2l0,0l0,0h0.1c0.1,0,0.2-0.1,0.3-0.2l5.4-5.4l11.6,11.6l-5.4,5.4
	c0,0,0,0.1-0.1,0.1c0,0.1-0.1,0.1-0.1,0.1c0,0.1-0.1,0.1-0.1,0.1c0,0.1,0,0.1,0,0.1c0,0.1,0,0.1,0,0.1v0.1
	C75.03,119.01,74.43,121.81,72.83,124.61z"/>
</svg>
